img/advantages__icon--00.svg

<svg width="67" height="73" viewBox="0 0 67 73" fill="none" xmlns="http://www.w3.org/2000/svg">
<g filter="url(#filter0_d)">
<path fill-rule="evenodd" clip-rule="evenodd" d="M52.7959 28.5986H22.5636L51.602 20.1766C51.8277 20.1111 52.0181 19.9583 52.1316 19.7524C52.2452 19.5462 52.2722 19.3036 52.2067 19.0777L50.6872 13.8256C50.08 11.7279 48.1292 10.2627 45.9429 10.2627C45.4822 10.2627 45.0232 10.3282 44.5781 10.4571L17.314 18.3645C16.053 18.7301 15.008 19.5694 14.3707 20.7273C13.7338 21.8851 13.5843 23.2183 13.9495 24.4805L15.4341 29.6116V50.749C15.4341 53.4716 17.6463 55.6864 20.3653 55.6864H31.0134C31.5028 55.6864 31.8995 55.2893 31.8995 54.7992C31.8995 54.3092 31.5028 53.9121 31.0134 53.9121H20.3656C18.6235 53.9121 17.2063 52.4933 17.2063 50.749V38.6757H21.746H21.7481H21.7498H28.6893H28.6914H28.6935H35.633H35.6351H35.6372H42.5767H42.5787H42.5805H51.9098V50.749C51.9098 52.4933 50.4926 53.9121 48.7505 53.9121H38.1024C37.6133 53.9121 37.2163 54.3092 37.2163 54.7992C37.2163 55.2893 37.6133 55.6864 38.1024 55.6864H48.7505C51.4698 55.6864 53.682 53.4716 53.682 50.749V29.4858C53.682 28.9958 53.2853 28.5986 52.7959 28.5986ZM37.1706 36.9014L40.9356 30.373H45.8325L42.0678 36.9014H37.1706ZM30.2269 36.9014L33.9919 30.373H38.8888L35.1242 36.9014H30.2269ZM23.2836 36.9014L27.0483 30.373H31.9455L28.1805 36.9014H23.2836ZM26.5782 25.4162L20.2735 19.3535L24.9974 17.9836C25.0306 18.0321 25.0694 18.0779 25.1137 18.1205L31.4183 24.1831L26.6945 25.5531C26.6613 25.5046 26.6222 25.4585 26.5782 25.4162ZM38.4523 14.2519L44.757 20.3145L40.0332 21.6845C40 21.636 39.9612 21.5899 39.9169 21.5476L33.6122 15.4849L38.336 14.115C38.3693 14.1635 38.408 14.2093 38.4523 14.2519ZM31.7828 16.1864L38.0875 22.2487L33.3637 23.6189C33.3304 23.5704 33.2917 23.5243 33.2474 23.4821L26.9427 17.4194L31.6665 16.0495C31.7001 16.0977 31.7389 16.1437 31.7828 16.1864ZM45.0713 12.1615C45.3559 12.079 45.649 12.0371 45.9429 12.0371C47.3451 12.0371 48.5958 12.9755 48.9848 14.3195L50.258 18.719L46.7027 19.75C46.6691 19.7015 46.6304 19.6557 46.5861 19.6131L40.2817 13.5508L45.0713 12.1615ZM15.9232 21.5833C16.3316 20.8406 17.0007 20.3028 17.8072 20.0688L18.3278 19.9177C18.3614 19.9663 18.4002 20.0123 18.4441 20.0546L24.7488 26.1173L16.9249 28.3865L15.6518 23.987C15.4182 23.1799 15.5147 22.3263 15.9232 21.5833ZM17.2063 30.373H25.0019L21.2372 36.9014H17.2063V30.373ZM44.1142 36.9014L47.8789 30.373H51.9098V36.9014H44.1142Z" fill="url(#paint0_linear)"/>
<path fill-rule="evenodd" clip-rule="evenodd" d="M40.6844 46.2035C40.6844 45.8864 40.5154 45.5936 40.2413 45.4352L32.4561 40.9352C32.182 40.7768 31.8442 40.7768 31.57 40.9352C31.2959 41.0936 31.127 41.3864 31.127 41.7035V50.7035C31.127 51.0203 31.2959 51.3131 31.57 51.4715C31.7071 51.5509 31.8601 51.5907 32.0131 51.5907C32.1661 51.5907 32.3191 51.5509 32.4561 51.4715L40.2413 46.9718C40.5154 46.8135 40.6844 46.5206 40.6844 46.2035ZM32.8992 49.1669V43.2401L38.026 46.2035L32.8992 49.1669Z" fill="url(#paint1_linear)"/>
<path fill-rule="evenodd" clip-rule="evenodd" d="M34.557 53.9121C34.069 53.9121 33.6709 54.3106 33.6709 54.7993C33.6709 55.2879 34.069 55.6865 34.557 55.6865C35.0454 55.6865 35.4432 55.2879 35.4432 54.7993C35.4432 54.3106 35.0454 53.9121 34.557 53.9121Z" fill="url(#paint2_linear)"/>
</g>
<defs>
<filter id="filter0_d" x="0.505319" y="0.799418" width="66.4253" height="71.921" filterUnits="userSpaceOnUse" color-interpolation-filters="sRGB">
<feFlood flood-opacity="0" result="BackgroundImageFix"/>
<feColorMatrix in="SourceAlpha" type="matrix" values="0 0 0 0 0 0 0 0 0 0 0 0 0 0 0 0 0 0 127 0"/>
<feOffset dy="3.78531"/>
<feGaussianBlur stdDeviation="6.62429"/>
<feColorMatrix type="matrix" values="0 0 0 0 0.996078 0 0 0 0 0.823529 0 0 0 0 0.188235 0 0 0 0.4 0"/>
<feBlend mode="normal" in2="BackgroundImageFix" result="effect1_dropShadow"/>
<feBlend mode="normal" in="SourceGraphic" in2="effect1_dropShadow" result="shape"/>
</filter>
<linearGradient id="paint0_linear" x1="53.682" y1="1.02397" x2="-0.0985742" y2="29.7699" gradientUnits="userSpaceOnUse">
<stop stop-color="#FED230"/>
<stop offset="1" stop-color="#FE8730"/>
</linearGradient>
<linearGradient id="paint1_linear" x1="40.6844" y1="38.625" x2="27.8635" y2="45.5405" gradientUnits="userSpaceOnUse">
<stop stop-color="#FED230"/>
<stop offset="1" stop-color="#FE8730"/>
</linearGradient>
<linearGradient id="paint2_linear" x1="35.4432" y1="53.5512" x2="33.2011" y2="54.9129" gradientUnits="userSpaceOnUse">
<stop stop-color="#FED230"/>
<stop offset="1" stop-color="#FE8730"/>
</linearGradient>
</defs>
</svg>

<svg width="67" height="73" fill="none" xmlns="http://www.w3.org/2000/svg"><g filter="url(#filter0_d)" fill-rule="evenodd" clip-rule="evenodd"><path d="M52.796 28.599H22.564l29.038-8.422a.888.888 0 00.605-1.1l-1.52-5.251a4.961 4.961 0 00-4.744-3.563c-.46 0-.92.065-1.365.194l-27.264 7.907a4.899 4.899 0 00-2.943 2.363 4.908 4.908 0 00-.421 3.753l1.484 5.132v21.137a4.94 4.94 0 004.931 4.937h10.648a.887.887 0 000-1.774H20.366a3.165 3.165 0 01-3.16-3.163V38.676H51.91v12.073a3.165 3.165 0 01-3.16 3.163H38.103a.887.887 0 000 1.774h10.649a4.94 4.94 0 004.931-4.937V29.486a.887.887 0 00-.886-.887zM37.17 36.9l3.765-6.528h4.897L42.067 36.9H37.17zm-6.944 0l3.765-6.528h4.897L35.123 36.9h-4.897zm-6.943 0l3.764-6.528h4.898L28.179 36.9h-4.896zm3.294-11.485l-6.305-6.063 4.724-1.37a.878.878 0 00.117.137l6.304 6.063-4.723 1.37a.88.88 0 00-.117-.137zm11.874-11.164l6.305 6.062-4.724 1.37a.865.865 0 00-.116-.136l-6.305-6.063 4.724-1.37a.884.884 0 00.116.137zm-6.67 1.934l6.305 6.063-4.723 1.37a.865.865 0 00-.117-.137l-6.304-6.063 4.723-1.37a.945.945 0 00.117.137zm13.29-4.024a3.13 3.13 0 01.87-.125 3.18 3.18 0 013.043 2.282l1.273 4.4-3.555 1.031a.903.903 0 00-.117-.137l-6.304-6.062 4.79-1.39zm-29.149 9.421a3.137 3.137 0 011.884-1.514l.52-.151a.904.904 0 00.117.137l6.305 6.062-7.824 2.27-1.273-4.4a3.144 3.144 0 01.271-2.404zm1.283 8.79h7.796L21.236 36.9h-4.03v-6.528zM44.113 36.9l3.765-6.528h4.03V36.9h-7.795z" fill="url(#paint0_linear)"/><path d="M40.684 46.203a.887.887 0 00-.443-.768l-7.785-4.5a.886.886 0 00-1.329.768v9a.887.887 0 001.33.768l7.784-4.5a.887.887 0 00.443-.767zM32.9 49.167V43.24l5.127 2.963-5.127 2.964z" fill="url(#paint1_linear)"/><path d="M34.557 53.912a.888.888 0 000 1.775.888.888 0 000-1.775z" fill="url(#paint2_linear)"/></g><defs><linearGradient id="paint0_linear" x1="53.682" y1="1.024" x2="-.099" y2="29.77" gradientUnits="userSpaceOnUse"><stop stop-color="#FED230"/><stop offset="1" stop-color="#FE8730"/></linearGradient><linearGradient id="paint1_linear" x1="40.684" y1="38.625" x2="27.863" y2="45.541" gradientUnits="userSpaceOnUse"><stop stop-color="#FED230"/><stop offset="1" stop-color="#FE8730"/></linearGradient><linearGradient id="paint2_linear" x1="35.443" y1="53.551" x2="33.201" y2="54.913" gradientUnits="userSpaceOnUse"><stop stop-color="#FED230"/><stop offset="1" stop-color="#FE8730"/></linearGradient><filter id="filter0_d" x=".505" y=".799" width="66.425" height="71.921" filterUnits="userSpaceOnUse" color-interpolation-filters="sRGB"><feFlood flood-opacity="0" result="BackgroundImageFix"/><feColorMatrix in="SourceAlpha" values="0 0 0 0 0 0 0 0 0 0 0 0 0 0 0 0 0 0 127 0"/><feOffset dy="3.785"/><feGaussianBlur stdDeviation="6.624"/><feColorMatrix values="0 0 0 0 0.996078 0 0 0 0 0.823529 0 0 0 0 0.188235 0 0 0 0.4 0"/><feBlend in2="BackgroundImageFix" result="effect1_dropShadow"/><feBlend in="SourceGraphic" in2="effect1_dropShadow" result="shape"/></filter></defs></svg>
